X:1
T:Sweet Voices
T:James Milton Black
T:Sweet Voices
T:Public Domain
T:Public Domain
T:Public Domain
C:James Milton Black
Z:Public Domain
%%score 1 ( 2 3 )
L:1/8
M:4/4
K:G
V:1 treble 
V:2 bass 
V:3 bass 
V:1
 [DG][DA] | [GB][GB][GB][GB] [GB]2 [DG][DG] | [EA][EG][EG][CE] [B,D]2 [DG][DA] | %3
w: 1.~Hear sweet|voic- es from a- bove, Fill thy|hands and go with love, To the|
w: 2.~Cups of|wa- ter ye may bear, And bring|an- swer to your prayer; Je- sus|
w: 3.~On- ly|tell the sto- ry how Je- sus|comes to bless you now; What you|
 [GB][GB][GB][GB] [Gd]2 [GB]2 | [FA]6 [DG][DA] | [DB][DB][DB][DB] [DB]2 [DG][DG] | %6
w: wear- y as they wait, so|late; In the|name of Christ your King, Go and|
w: led the mul- ti- tude with|good. How the|blind with o- pened eyes Looked on|
w: do for love is best con-|fessed. Go as|Je- sus went to them; You may|
 [EA][EG][EG][CE] [B,D]2 [DG][EA] | [DB][B,D][^A,^C][B,D] [DB]2 [D=A]2 | [DG]6 || %9
w: sweet- ly, sweet- ly sing, Go and|wipe their tears a- way, and|pray.|
w: Him with glad sur- prise! Love may|fix the eyes long dim on|Him.|
w: find per- chance a gem, Long to|spar- kle in His sight in|light.|
"^Refrain" [GB][Ac] | [Bd]4- [Bd][GB][Ac][GB] | [FA]6 [FA][GB] | [Ac]4- [Ac][ce][Bd][Ac] | %13
w: Hap- py|voic- * es ev- ’ry-|where Are like|an- * gels in the|
w: ||||
w: ||||
 [GB]6 [DG][DA] | [GB][GB][GB][GB] [GB]2 [DG][DG] | [EA][EG][EG][CE] [B,D]2 [DG][EA] | %16
w: air. ’Twas for|this that Je- sus came, There is|mu- sic in His Name, In the|
w: |||
w: |||
 [DB][B,D][^A,^C][B,D] [DB]2 [D=A]2 | [DG]6 |] %18
w: work He call- eth you, be|true.|
w: ||
w: ||
V:2
 [G,B,][G,C] | [G,D][G,D][G,D][G,D] [G,D]2 [G,B,][G,B,] | %2
w: ~ ~|~ ~ ~ ~ ~ ~ ~|
 [C,C][C,C][C,C][C,G,] [G,,G,]2 [G,B,][G,C] | [G,D][G,D][G,D][G,D] [G,B,]2 [G,D]2 | %4
w: ~ ~ ~ ~ ~ ~ ~|~ ~ ~ ~ ~ ~|
 (D,4 D,C,)[B,,G,][A,,F,] | [G,,G,][G,,G,][G,,G,][G,,G,] [G,,G,]2 [G,,G,][B,,G,] | %6
w: ~ * * ~ ~|~ ~ ~ ~ ~ ~ ~|
 [C,C][C,C][C,C][C,G,] [G,,G,]2 [B,,G,][C,G,] | [D,G,][D,G,][D,G,][D,G,] [D,D]2 [D,C]2 | %8
w: ~ ~ ~ ~ ~ ~ ~|~ ~ ~ ~ ~ ~|
 [G,,G,B,]6 || z2 | z2 [G,D][G,D] [G,D][G,D] z2 | z2 [D,D][D,D] [D,D]2 z2 | %12
w: Hap-||py voic- es ev-|’ry- where Are|
 z2 [D,D][D,D] [D,D]2 [D,D]2 | [G,D][G,D][G,D][G,D] [G,D]2 [G,B,][G,C] | %14
w: like an- gels, an-|gels in the air. * * *|
 [G,D][G,D][G,D][G,D] [G,D]2 [G,B,][G,B,] | [C,C][C,C][C,C][C,G,] [G,,G,]2 [B,,G,][C,G,] | %16
w: ||
 [D,G,][D,G,][D,G,][D,G,] [D,D]2 [D,C]2 | [G,,G,B,]6 |] %18
w: ||
V:3
 x2 | x8 | x8 | x8 | D6 x2 | x8 | x8 | x8 | x6 || x2 | x8 | x8 | x8 | x8 | x8 | x8 | x8 | x6 |] %18
w: ||||~||||||||||||||

